contributed-vectors/gwent.svg

<svg xmlns="http://www.w3.org/2000/svg" xml:space="preserve" style="fill-rule:evenodd;clip-rule:evenodd;stroke-linejoin:round;stroke-miterlimit:2" viewBox="0 0 192 192"><path d="M164.5 21.5c0-5.519-4.481-10-10-10h-133c-5.519 0-10 4.481-10 10v133c0 5.519 4.481 10 10 10h133c5.519 0 10-4.481 10-10v-133Z" style="fill:#73ada4" transform="translate(8 8)"/><path d="M43.79 115.293V67.578l24.778 23.973-4.05 3.918v11.178h4.159l2.628 14.274H49.418l-5.628-5.628Z" style="fill:#f9de81" transform="matrix(.80292 0 0 .80292 18.729 20.048)"/><path d="M43.79 115.293V67.578l24.778 23.973-4.05 3.918v11.178h4.159l2.628 14.274H49.418l-5.628-5.628Z" style="fill:#f9de81" transform="matrix(-.80292 0 0 .80292 173.27 20.048)"/><path d="M131.267 85.628h29.168v29.168h-29.168z" style="fill:#f9de81" transform="scale(.80292) rotate(-45 159.379 142.87)"/><path d="M96 80.067v34.472L78.764 97.303 96 80.067Z" style="fill:#9abeff" transform="translate(31.014 32.295) scale(.67705)"/><path d="m96 80.067.085-.084 17.32 17.32-17.32 17.321-.085-.085V80.067Z" style="fill:#ff837d" transform="translate(31.014 32.295) scale(.67705)"/><path d="m73.76 99.163 21.757 21.758H73.76V99.163Zm44.311 21.758H96.483l21.588-21.588v21.588ZM73.76 69.505l22.155-20.679 22.156 20.679v25.768L96 73.203l-22.24 22.24V69.505Z" style="fill:#f9de81" transform="matrix(.80292 0 0 .80292 18.988 20.048)"/><path d="m45.425 130.832 5.66-7.348h90.161l5.66 7.348H45.425Z" style="fill:#f9de81" transform="matrix(.80292 0 0 .80292 18.787 20.048)"/><path d="m45.425 130.832 5.66-7.348h90.161l5.66 7.348H45.425Z" style="fill:#f9de81" transform="matrix(.80292 0 0 .80292 18.787 27.702)"/></svg>

<?xml version="1.0" encoding="UTF-8" standalone="no"?>
<!DOCTYPE svg PUBLIC "-//W3C//DTD SVG 1.1//EN" "http://www.w3.org/Graphics/SVG/1.1/DTD/svg11.dtd">
<svg width="100%" height="100%" viewBox="0 0 192 192" version="1.1" xmlns="http://www.w3.org/2000/svg" xmlns:xlink="http://www.w3.org/1999/xlink" xml:space="preserve" xmlns:serif="http://www.serif.com/" style="fill-rule:evenodd;clip-rule:evenodd;stroke-linejoin:round;stroke-miterlimit:2;">
    <g id="Layer1">
        <g transform="matrix(1,0,0,1,8,8)">
            <path d="M164.5,21.5C164.5,15.981 160.019,11.5 154.5,11.5L21.5,11.5C15.981,11.5 11.5,15.981 11.5,21.5L11.5,154.5C11.5,160.019 15.981,164.5 21.5,164.5L154.5,164.5C160.019,164.5 164.5,160.019 164.5,154.5L164.5,21.5Z" style="fill:rgb(115,173,164);"/>
        </g>
        <g transform="matrix(0.802916,0,0,0.802916,18.92,20.0477)">
            <g>
                <g transform="matrix(1,0,0,1,-0.238237,0)">
                    <path d="M43.79,115.293L43.79,67.578L68.568,91.551L64.518,95.469L64.518,106.647L68.677,106.647L71.305,120.921L49.418,120.921L43.79,115.293Z" style="fill:rgb(249,222,129);"/>
                    <g transform="matrix(-1,0,0,1,192.476,0)">
                        <path d="M43.79,115.293L43.79,67.578L68.568,91.551L64.518,95.469L64.518,106.647L68.677,106.647L71.305,120.921L49.418,120.921L43.79,115.293Z" style="fill:rgb(249,222,129);"/>
                    </g>
                </g>
                <g transform="matrix(1,0,0,1,0.0847951,0)">
                    <g transform="matrix(0.707107,-0.707107,0.707107,0.707107,-77.9927,129.575)">
                        <rect x="131.267" y="85.628" width="29.168" height="29.168" style="fill:rgb(249,222,129);"/>
                    </g>
                    <g transform="matrix(0.843242,0,0,0.843242,15.0488,15.2531)">
                        <g transform="matrix(1,0,0,1,-0.0847951,0)">
                            <path d="M96,80.067L96,114.539L78.764,97.303L96,80.067Z" style="fill:rgb(154,190,255);"/>
                        </g>
                        <g transform="matrix(1,0,0,1,-0.0847951,0)">
                            <path d="M96,80.067L96.085,79.983L113.405,97.303L96.085,114.624L96,114.539L96,80.067Z" style="fill:rgb(255,131,125);"/>
                        </g>
                    </g>
                    <path d="M73.76,99.163L95.517,120.921L73.76,120.921L73.76,99.163ZM118.071,120.921L96.483,120.921L118.071,99.333L118.071,120.921ZM73.76,69.505L95.915,48.826L118.071,69.505L118.071,95.273L96,73.203L73.76,95.443L73.76,69.505Z" style="fill:rgb(249,222,129);"/>
                </g>
            </g>
            <g transform="matrix(1,0,0,1,-0.16531,0)">
                <path d="M45.425,130.832L51.085,123.484L141.246,123.484L146.906,130.832L45.425,130.832Z" style="fill:rgb(249,222,129);"/>
                <g transform="matrix(1,0,0,1,0,9.53251)">
                    <path d="M45.425,130.832L51.085,123.484L141.246,123.484L146.906,130.832L45.425,130.832Z" style="fill:rgb(249,222,129);"/>
                </g>
            </g>
        </g>
    </g>
</svg>
